!!!COM: Bach, Johann Sebastian
!!!OTL: Nun ruhen alle Waelder
!!!ONM: No. 117
!!!OCL: Erk
!!!YOE: Riemenschneider, Albert
!!!OPR: 371 Harmonized Chorales and 69 Chorale Melodies with Figured Bass
!!!OPT: Bach Chorale Harmonizations
**kern	**kern	**kern	**kern
! bass	! tenor	! alto	! soprano
*M4/4	*M4/4	*M4/4	*M4/4
*A-:	*A-:	*A-:	*A-:
4A-	4e-	4a-	4cc
=1	=1	=1	=1
8d-	4d-	4f	4a-
8c	.	.	.
4B-	4d-	4g	4b-
4.A-	8e-	8a-	8cc
.	8d-	8b-	8dd-
.	8c	4cc	4ee-
8G	8B-	.	.
=2	=2	=2	=2
4F	4A-	4cc	2dd-
4G	4e-	4b-	.
4A-;	4e-;	4a-;	4cc;
4F	4f	4a-	8cc
.	.	.	8dd-
=3	=3	=3	=3
8C	4e-	8a-	4ee-
8BB-	.	8g	.
8C	4e-	8a-	4ee-
8D-	.	8f	.
8E-	4e-	8g	4b-
8D-	.	8f	.
4C	4G	4e-	4cc
=4	=4	=4	=4
2F	8A-	4e-	2a-
.	8G	.	.
.	4A-	4dn	.
4E-;	4B-;	4e-;	4g;
4D-	8G	4B-	4e-
.	8F	.	.
=5	=5	=5	=5
4C	4E-	4e-	4a-
4BB-	8F	4d-	4b-
.	8G	.	.
8AA-	4A-	8c	4cc
8BB-	.	8d-	.
8C	4A-	4e-	4cc
8D-	.	.	.
=6	=6	=6	=6
2.E-;	2.G;	2.e-;	2.b-;
4En	4c	4g	4cc
=7	=7	=7	=7
4F	8c	4f	4a-
.	8d-	.	.
4G	8c	4e-	4b-
.	8B-	.	.
4A-	8A-	4e-	8cc
.	8B-	.	8dd-
4An	4c	4f	4ee-
=8	=8	=8	=8
4B-	8B-	8f	2dd-
.	8c	8e-	.
4BB-	8d-	8f	.
.	8e-	8g	.
4F;	4f;	4an;	4cc;
4F	4f	4a-	8cc
.	.	.	8dd-
=9	=9	=9	=9
4G	8e-	4b-	4ee-
.	8d-	.	.
4A-	4c	8a-	4ee-
.	.	8g	.
8A-	4dn	4f	4b-
8G	.	.	.
8F	4G	4g	4cc
8En	.	.	.
=10	=10	=10	=10
8F	2c	4g	2a-
8G	.	.	.
8A-	.	4f	.
8B-	.	.	.
4c;	4c;	4en;	4g;
4C	4c	4e-	4e-
=11	=11	=11	=11
4F	8c	8e-	4a-
.	8d-	8f	.
4G	8c	8e-	4b-
.	8B-	8d-	.
8A-	4A-	8c	4cc
8G	.	8e-	.
8F	4A-	8f	4dd-
8E-	.	8g	.
=12	=12	=12	=12
4D-	4f	4a-	4cc
4E-	8B-	4g	4b-
.	16c	.	.
.	16d-	.	.
4AA-;	4c;	4e-;	4a-;
==	==	==	==
*-	*-	*-	*-
!!!CDT: 1685/3//-1750/7/28
!!!OCY: Deutschland
!!!AGN: chorale
!!!AST: Baroque
!!!AIN: vox
!!!YOY: 1941
!!!PPP: New York; London
!!!PPR: G. Schirmer
!!!ENC: David Huron
!!!EED: David Huron
!!!YEN: United States of America
!!!YER: 1992
!!!YEC: Copyright 1992 David Huron
!!!YEM: Rights to all derivative electronic formats reserved.
!!!YER: March 20, 1996
!!!AMT: simple quadruple
!!!EEV: 1.1
